images/preferences/3.svg

<svg width="48" height="52" viewBox="0 0 48 52" fill="none" xmlns="http://www.w3.org/2000/svg">
<path d="M38.0627 20.4821C40.8739 18.3769 42.6801 15.1254 42.6801 11.483C42.6801 5.15125 37.2231 0 30.5155 0C23.8078 0 18.3507 5.15125 18.3507 11.483C18.3507 11.898 18.3748 12.3079 18.4205 12.7116C17.0378 11.9958 15.4521 11.5879 13.767 11.5879C8.41223 11.5879 4.05593 15.701 4.05593 20.7566C4.05593 23.3925 5.24176 25.7704 7.13412 27.4446C2.93823 29.191 0 33.1671 0 37.7822V48.4441C0 50.4049 1.68267 52 3.75101 52H17.3779H18.6035H43.6528C46.0499 52 48 50.1514 48 47.8789V33.8943C48 27.73 43.8517 22.4675 38.0627 20.4821ZM30.5155 3.48536C35.1958 3.48536 39.0034 7.07308 39.0034 11.483C39.0034 15.8929 35.1958 19.4806 30.5155 19.4806C25.8351 19.4806 22.0274 15.8929 22.0274 11.483C22.0274 7.07308 25.8351 3.48536 30.5155 3.48536ZM13.767 15.0733C17.0944 15.0733 19.8015 17.6228 19.8015 20.7566C19.8015 21.2111 19.7437 21.6621 19.6317 22.0986C17.9411 23.1891 16.4959 24.597 15.3927 26.2317C14.8665 26.3699 14.3218 26.4401 13.767 26.4401C10.4396 26.4401 7.73255 23.8905 7.73255 20.7566C7.73255 17.6229 10.4396 15.0733 13.767 15.0733ZM3.67662 48.4441V37.7822C3.67662 33.4819 7.36709 29.9834 11.9033 29.9834H13.6062C13.2315 31.2267 13.0308 32.5387 13.0308 33.8943V47.8789C13.0308 48.0951 13.0487 48.3074 13.0826 48.5146H3.75101C3.71424 48.5146 3.67662 48.479 3.67662 48.4441ZM44.3234 47.8789C44.3234 48.2235 44.0163 48.5146 43.6528 48.5146H18.6036H17.378C17.0145 48.5146 16.7074 48.2235 16.7074 47.8789V33.8943C16.7074 27.9545 21.8051 23.122 28.0709 23.122H32.9599C39.2257 23.122 44.3234 27.9545 44.3234 33.8943V47.8789Z" fill="url(#paint0_linear)"/>
<defs>
<linearGradient id="paint0_linear" x1="-6" y1="-8.13798" x2="64.262" y2="66.7219" gradientUnits="userSpaceOnUse">
<stop stop-color="#1C2D5A"/>
<stop offset="1" stop-color="#4FC3DD" stop-opacity="0.96"/>
</linearGradient>
</defs>
</svg>

<svg width="48" height="52" fill="none" xmlns="http://www.w3.org/2000/svg"><path d="M38.063 20.482c2.81-2.105 4.617-5.357 4.617-8.999C42.68 5.151 37.223 0 30.515 0c-6.707 0-12.164 5.151-12.164 11.483 0 .415.024.825.07 1.229a10.103 10.103 0 0 0-4.654-1.124c-5.355 0-9.711 4.113-9.711 9.169 0 2.635 1.186 5.013 3.078 6.688C2.938 29.19 0 33.167 0 37.782v10.662C0 50.404 1.683 52 3.751 52h39.902C46.05 52 48 50.151 48 47.879V33.894c0-6.164-4.148-11.426-9.937-13.412ZM30.515 3.485c4.68 0 8.488 3.588 8.488 7.998s-3.807 7.998-8.488 7.998c-4.68 0-8.488-3.588-8.488-7.998s3.808-7.998 8.488-7.998ZM13.767 15.073c3.327 0 6.035 2.55 6.035 5.684 0 .454-.058.905-.17 1.342a14.76 14.76 0 0 0-4.24 4.133 6.39 6.39 0 0 1-1.625.208c-3.327 0-6.034-2.55-6.034-5.683 0-3.134 2.707-5.684 6.034-5.684ZM3.677 48.444V37.782c0-4.3 3.69-7.799 8.226-7.799h1.703a13.528 13.528 0 0 0-.575 3.911V47.88c0 .216.018.428.052.636H3.75c-.037 0-.074-.036-.074-.07Zm40.646-.565c0 .345-.307.636-.67.636H17.378c-.363 0-.67-.291-.67-.636V33.894c0-5.94 5.097-10.772 11.363-10.772h4.889c6.266 0 11.363 4.832 11.363 10.772V47.88Z" fill="url(#a)"/><defs><linearGradient id="a" x1="-6" y1="-8.138" x2="64.262" y2="66.722" gradientUnits="userSpaceOnUse"><stop stop-color="#1C2D5A"/><stop offset="1" stop-color="#4FC3DD" stop-opacity=".96"/></linearGradient></defs></svg>
